X:6207
T:Gerry Commane's
R:reel
D:Mary Bergin:Feadoga Stain
D:Light Through the Leaves
Z:id:hn-reel-160
M:C|
K:D
d2ed cAGE|~A3G AB (3cBA|d2ed dcAF|DGGF ~G2AF|
GAEA DEFG|(3ABA dc defg|a2ge fded|1 fdAF (3GAG fe:|2 fdAF (3GAG fg||
|:~a3b agfg|a2af (3gag fg|adbd agfe|defd ~g2fg|
~a3g (3fgf ed|cA~A2 ~f3g|a2ge fded|1 fdAF (3GAG fg:|2 fdAF (3GAG fe||
